X: 120474
T: Larry McDonagh's
S: Treoir 32/2
Z: B.Black
M: 4/4
L: 1/8
K: G
G2 GA B2 BA | B2 BG AGEF | G2 GA B2 BA | GABG AGEF |
GFGA B2 BA | BcBG AGEF | GFGA BcdB | GABG A2 G2 :|
gfgd edgd | edgd BABd | gfgd egfa | gedB c2 BA |
G2 gd edgd | edgd BABd | gfgd ed^cd | eaaf gedB :|
